img/superexpres.svg

<svg id="superexpres_svg" viewBox="0 0 21 30" fill="none" xmlns="http://www.w3.org/2000/svg">
    <g clip-path="url(#clip0)">
        <path d="M18.6038 23.7379C19.19 24.211 19.6168 24.9823 19.5294 25.517L20.5424 25.6816C20.7018 24.7149 20.0282 23.4551 19.046 22.7763C19.1283 22.4884 19.1694 22.185 19.1694 21.8816H19.1489C19.1283 20.0305 17.6114 18.529 15.7551 18.529C15.75 18.529 15.7449 18.529 15.7397 18.529C15.5597 18.529 15.3849 18.5496 15.2152 18.5753C15.1998 18.5753 15.1844 18.5805 15.1741 18.5805C14.9941 18.6113 14.8193 18.6576 14.6496 18.7141H14.6445C14.192 17.8657 13.2818 17.1818 12.3408 16.9916V14.3691H11.3124V17.4544C11.3124 17.7372 11.5438 17.9686 11.8266 17.9686C12.5414 17.9686 13.3795 18.5342 13.7395 19.2078C12.927 19.8197 12.3974 20.7915 12.3974 21.8868H13.4258C13.4258 20.9561 13.9811 20.1591 14.773 19.7837C14.809 19.7683 14.845 19.7477 14.881 19.7323C14.9941 19.686 15.1072 19.65 15.2255 19.6243C15.2667 19.614 15.3129 19.6089 15.3592 19.5986C15.4826 19.578 15.6009 19.5626 15.7294 19.5626C15.7397 19.5626 15.7551 19.5626 15.7654 19.5626C17.0715 19.5626 18.1308 20.6218 18.1308 21.9279C18.1308 22.221 18.0742 22.5038 17.9662 22.7763C17.7708 23.2391 17.4314 23.6402 16.9841 23.8973L17.4983 24.7869C17.9508 24.5246 18.321 24.1595 18.6038 23.7379Z"
              fill="black"/>
        <path d="M9.25561 25.6817C9.25561 25.1315 9.47158 24.6173 9.85723 24.2265C10.2429 23.8357 10.7622 23.6249 11.3124 23.6249V22.5965C10.6645 22.5965 10.0526 22.797 9.53328 23.1621C8.96252 22.5245 8.13465 22.1337 7.22966 22.0823L7.1731 23.1107C7.82099 23.1467 8.41746 23.4398 8.80312 23.8923C8.42775 24.4116 8.22721 25.0287 8.22721 25.6817H9.25561Z"
              fill="black"/>
        <path d="M5.82076 21.2697L6.68976 20.7195C6.32468 20.1436 5.79505 19.722 5.18315 19.4906C5.46596 18.6782 6.73604 17.9686 7.71303 17.9686C7.99584 17.9686 8.22723 17.7372 8.22723 17.4544V14.3691H7.19882V16.9813C5.87733 17.1818 4.49412 18.1074 4.17018 19.2901C4.15475 19.2901 4.14447 19.2901 4.12904 19.2901C4.11361 19.2901 4.10333 19.2901 4.0879 19.2901V19.2952C2.39104 19.3106 0.982125 20.6835 0.982125 22.3958C0.982125 22.7352 1.03869 23.0643 1.15181 23.3985C0.406219 23.9693 0 24.7663 0 25.6816H1.0284C1.0284 24.9823 1.37292 24.4269 2.05681 24.0259C2.29334 23.887 2.37047 23.5785 2.24706 23.3368C2.0928 23.0386 2.01567 22.7198 2.01567 22.3907C2.01567 21.2492 2.94638 20.3133 4.09305 20.3133C4.21645 20.3133 4.345 20.3287 4.46841 20.3493C5.01861 20.4573 5.5071 20.7812 5.82076 21.2697Z"
              fill="black"/>
        <path d="M5.68195 14.0196C5.72823 14.1584 5.83621 14.2767 5.97504 14.3333C6.11388 14.3898 6.26814 14.3847 6.40183 14.3178L8.07299 13.4797L9.35849 15.192C9.45619 15.3205 9.60531 15.3977 9.76985 15.3977C9.9344 15.3977 10.0835 15.3205 10.1812 15.192L11.4667 13.4797L13.1379 14.3178C13.2716 14.3847 13.4258 14.3898 13.5647 14.3333C13.7035 14.2767 13.8063 14.1636 13.8578 14.0196L14.372 12.477C14.4337 12.2919 14.3874 12.0862 14.2485 11.9525L12.3409 10.0448V6.14202C12.3409 3.54016 10.8702 1 9.76985 1C8.66946 1 7.19884 3.54016 7.19884 6.14202V10.0448L5.29115 11.9525C5.15232 12.0913 5.10604 12.2919 5.16775 12.477L5.68195 14.0196ZM8.07813 10.6207C8.17068 10.523 8.22725 10.3945 8.22725 10.2556V6.14202C8.22725 3.92581 9.35335 2.25979 9.76985 2.03869C10.1864 2.25465 11.3125 3.92581 11.3125 6.14202V10.2556C11.3125 10.3945 11.369 10.523 11.4616 10.6207L13.2921 12.4513L13.0659 13.13L11.5387 12.369C11.3176 12.261 11.0451 12.3227 10.896 12.5181L9.76985 14.0247L8.63861 12.5181C8.54091 12.3844 8.38665 12.3124 8.22725 12.3124C8.15012 12.3124 8.07299 12.3279 7.99586 12.369L6.46868 13.13L6.24243 12.4513L8.07813 10.6207Z"
              fill="black"/>
        <path d="M10.284 6.65625H9.25562V7.68465H10.284V6.65625Z" fill="black"/>
        <path d="M2.29846 29.4508L1.58372 26.926H0.653015V30.6694H1.29577V28.0624L1.9848 30.2529H2.61212L3.30115 28.011V30.6694H3.94391V26.926H3.0132L2.29846 29.4508Z"
              fill="black"/>
        <path d="M6.77205 27.0596C6.56637 26.9465 6.32469 26.8899 6.05216 26.8899C5.77964 26.8899 5.5431 26.9465 5.33228 27.0596C5.1266 27.1727 4.9672 27.3372 4.85407 27.5429C4.74095 27.7538 4.68439 27.9954 4.68439 28.268V29.3272C4.68439 29.6049 4.74095 29.8414 4.85407 30.0522C4.9672 30.2631 5.1266 30.4225 5.33228 30.5356C5.53796 30.6487 5.77964 30.7053 6.05216 30.7053C6.32469 30.7053 6.56122 30.6487 6.77205 30.5356C6.97773 30.4225 7.13713 30.2579 7.25025 30.0522C7.36338 29.8414 7.41994 29.5997 7.41994 29.3272V28.268C7.41994 27.9954 7.36338 27.7538 7.25025 27.5429C7.14227 27.3321 6.98287 27.1727 6.77205 27.0596ZM6.69492 29.3478C6.69492 29.4763 6.66921 29.5946 6.61779 29.6923C6.56637 29.79 6.48924 29.8671 6.39668 29.9237C6.29898 29.9751 6.191 30.006 6.06245 30.006C5.9339 30.006 5.82592 29.9802 5.72822 29.9237C5.63052 29.8671 5.55853 29.7951 5.50711 29.6923C5.45569 29.5946 5.42998 29.4763 5.42998 29.3478V28.2525C5.42998 28.124 5.45569 28.0057 5.50711 27.908C5.55853 27.8103 5.63566 27.7332 5.72822 27.6766C5.82592 27.6252 5.9339 27.5944 6.06245 27.5944C6.191 27.5944 6.29898 27.6201 6.39668 27.6766C6.49438 27.7332 6.56637 27.8052 6.61779 27.908C6.66921 28.0057 6.69492 28.124 6.69492 28.2525V29.3478Z"
              fill="black"/>
        <path d="M8.798 27.9132C8.84942 27.8103 8.91627 27.7281 9.00883 27.6766C9.10138 27.6252 9.21451 27.5944 9.3482 27.5944C9.45104 27.5944 9.53845 27.6149 9.62073 27.6612C9.703 27.7075 9.76985 27.7743 9.83155 27.8617C9.88811 27.9492 9.92925 28.0571 9.9601 28.1806H10.6903C10.644 27.908 10.5617 27.6766 10.4383 27.4812C10.3149 27.2858 10.1658 27.1419 9.98067 27.039C9.79556 26.9362 9.58473 26.8848 9.3482 26.8848C9.06539 26.8848 8.81857 26.9413 8.61803 27.0493C8.4175 27.1573 8.26323 27.3167 8.15525 27.5275C8.04727 27.7383 7.99585 27.9903 7.99585 28.2834V29.3118C7.99585 29.61 8.04727 29.862 8.15525 30.0677C8.26323 30.2785 8.4175 30.4328 8.61803 30.5459C8.81857 30.659 9.06539 30.7104 9.3482 30.7104C9.58473 30.7104 9.79556 30.659 9.97553 30.5562C10.1606 30.4533 10.3149 30.3093 10.4332 30.114C10.5566 29.9186 10.6388 29.6872 10.6851 29.4146H9.95496C9.92925 29.538 9.88811 29.646 9.83155 29.7334C9.77499 29.8209 9.703 29.8877 9.62073 29.934C9.53845 29.9803 9.4459 30.0008 9.34306 30.0008C9.20937 30.0008 9.09624 29.9751 9.00369 29.9186C8.91113 29.862 8.83914 29.7849 8.79286 29.682C8.74144 29.5792 8.72087 29.4558 8.72087 29.3067V28.2783C8.72087 28.1394 8.74658 28.016 8.798 27.9132Z"
              fill="black"/>
        <path d="M14.0942 26.926H13.2818L12.4077 28.4738H11.986V26.926H11.2816V30.6694H11.986V29.1525H12.4025L13.3692 30.6694H14.2536L13.0041 28.808L14.0942 26.926Z"
              fill="black"/>
        <path d="M17.0818 28.9006C16.9635 28.8234 16.8247 28.772 16.6602 28.7514C16.8144 28.7257 16.9481 28.6743 17.0561 28.6023C17.1641 28.5303 17.2515 28.4378 17.3081 28.3247C17.3646 28.2115 17.3955 28.083 17.3955 27.939C17.3955 27.7282 17.3492 27.5431 17.2618 27.394C17.1744 27.2448 17.0407 27.1266 16.871 27.0443C16.7013 26.962 16.4905 26.926 16.2488 26.926H15.4261H15.0301H14.7216V30.6694H15.0301H15.4261H16.2899C16.5316 30.6694 16.7373 30.6283 16.9121 30.5511C17.0869 30.474 17.2155 30.3558 17.3081 30.2015C17.4006 30.0472 17.4417 29.8673 17.4417 29.6513V29.641C17.4417 29.4765 17.4109 29.3325 17.3492 29.2039C17.2875 29.0857 17.2001 28.9828 17.0818 28.9006ZM16.2231 27.6048C16.3671 27.6048 16.4802 27.6408 16.5625 27.7076C16.6447 27.7745 16.6807 27.867 16.6807 27.9904C16.6807 28.1241 16.6396 28.227 16.5625 28.3041C16.4853 28.3812 16.3671 28.4172 16.2231 28.4172H15.4261V27.6151H16.2231V27.6048ZM16.727 29.5433C16.727 29.6821 16.6807 29.7953 16.5933 29.8724C16.5059 29.9495 16.3774 29.9907 16.2179 29.9907H15.4209V29.0908H16.2179C16.3259 29.0908 16.4185 29.1062 16.4905 29.1422C16.5625 29.1782 16.6242 29.2296 16.6653 29.2965C16.7064 29.3633 16.727 29.4456 16.727 29.5382V29.5433Z"
              fill="black"/>
        <path d="M20.239 30.6694H21L19.5654 26.926H19.118L17.6834 30.6694H18.4444L18.6553 30.0678H20.0282L20.239 30.6694ZM18.8918 29.3891L19.3391 28.1138L19.7865 29.3891H18.8918Z"
              fill="black"/>
    </g>
    <defs>
        <clipPath id="clip0">
            <rect y="0.181152" width="21" height="29.7296" fill="white"/>
        </clipPath>
    </defs>
</svg>

<svg viewBox="0 0 21 30" fill="none" xmlns="http://www.w3.org/2000/svg"><g clip-path="url(#a)" fill="#000"><path d="M18.604 23.738c.586.473 1.013 1.244.925 1.779l1.013.165c.16-.967-.514-2.227-1.496-2.906.082-.288.123-.591.123-.894h-.02a3.399 3.399 0 0 0-3.394-3.353h-.015c-.18 0-.355.02-.525.046-.015 0-.03.006-.04.006-.18.03-.356.077-.525.133h-.005c-.453-.848-1.363-1.532-2.304-1.722v-2.623h-1.029v3.085c0 .283.232.515.515.515.714 0 1.553.565 1.912 1.239a3.35 3.35 0 0 0-1.342 2.679h1.029c0-.93.555-1.728 1.347-2.103.036-.016.072-.036.108-.052a2.09 2.09 0 0 1 .345-.108c.04-.01.087-.015.133-.025a2.2 2.2 0 0 1 .37-.036h.036a2.366 2.366 0 0 1 2.366 2.365c0 .293-.057.576-.165.848a2.339 2.339 0 0 1-.982 1.121l.514.89a3.375 3.375 0 0 0 1.106-1.05zm-9.348 1.944c0-.55.216-1.065.601-1.455a2.029 2.029 0 0 1 1.455-.602v-1.029c-.647 0-1.26.201-1.779.566-.57-.637-1.398-1.028-2.303-1.08l-.057 1.029c.648.036 1.244.329 1.63.781a3.032 3.032 0 0 0-.576 1.79h1.029zM5.82 21.27l.87-.55a3.058 3.058 0 0 0-1.507-1.23c.283-.812 1.553-1.521 2.53-1.521a.516.516 0 0 0 .514-.515V14.37H7.2v2.612c-1.322.2-2.705 1.126-3.029 2.31h-.082v.004c-1.697.016-3.106 1.388-3.106 3.1 0 .34.057.67.17 1.003C.406 23.97 0 24.766 0 25.682h1.028c0-.7.345-1.255 1.029-1.656a.525.525 0 0 0 .19-.69 2.041 2.041 0 0 1-.231-.945c0-1.142.93-2.078 2.077-2.078a2.076 2.076 0 0 1 1.728.956z"/><path d="M5.682 14.02a.52.52 0 0 0 .72.298l1.671-.838 1.285 1.712a.514.514 0 0 0 .823 0l1.286-1.712 1.67.838a.515.515 0 0 0 .72-.298l.515-1.543a.506.506 0 0 0-.123-.524l-1.908-1.908V6.142C12.34 3.54 10.87 1 9.77 1S7.199 3.54 7.199 6.142v3.903L5.29 11.953a.509.509 0 0 0-.123.524l.514 1.543zm2.396-3.4a.531.531 0 0 0 .15-.364V6.142c0-2.216 1.125-3.882 1.542-4.103.416.216 1.543 1.887 1.543 4.103v4.114a.53.53 0 0 0 .149.365l1.83 1.83-.226.679-1.527-.761a.524.524 0 0 0-.643.15L9.77 14.024l-1.131-1.507a.507.507 0 0 0-.643-.149l-1.527.761-.227-.679 1.836-1.83z"/><path d="M10.284 6.656H9.256v1.029h1.028V6.656zM2.298 29.45l-.714-2.524H.653v3.743h.643v-2.607l.689 2.19h.627l.69-2.241v2.658h.642v-3.743h-.93l-.716 2.525zm4.474-2.39a1.475 1.475 0 0 0-.72-.17c-.272 0-.509.056-.72.17a1.202 1.202 0 0 0-.478.483 1.51 1.51 0 0 0-.17.725v1.06c0 .277.057.513.17.724.113.211.273.37.478.484.206.113.448.17.72.17.273 0 .51-.057.72-.17.206-.114.365-.278.478-.484.113-.21.17-.452.17-.725v-1.059a1.51 1.51 0 0 0-.17-.725 1.113 1.113 0 0 0-.478-.483zm-.077 2.288a.74.74 0 0 1-.077.344.598.598 0 0 1-.221.232.7.7 0 0 1-.335.082.645.645 0 0 1-.334-.082.535.535 0 0 1-.22-.232.74.74 0 0 1-.078-.344v-1.095a.74.74 0 0 1 .077-.345.598.598 0 0 1 .221-.231.7.7 0 0 1 .334-.083c.129 0 .237.026.335.083.097.056.17.128.22.231a.74.74 0 0 1 .078.345v1.095zm2.103-1.435a.528.528 0 0 1 .21-.236.69.69 0 0 1 .34-.083c.103 0 .19.02.273.067a.65.65 0 0 1 .21.2c.057.088.098.196.13.32h.73a1.88 1.88 0 0 0-.253-.7 1.254 1.254 0 0 0-.457-.442 1.28 1.28 0 0 0-.633-.154c-.283 0-.53.056-.73.164a1.1 1.1 0 0 0-.463.479 1.64 1.64 0 0 0-.16.755v1.029c0 .298.052.55.16.756.108.21.263.365.463.478.2.113.447.164.73.164.237 0 .448-.051.628-.154.185-.103.339-.247.457-.442a1.88 1.88 0 0 0 .252-.7h-.73a.938.938 0 0 1-.123.32.555.555 0 0 1-.488.267.64.64 0 0 1-.34-.082.524.524 0 0 1-.211-.237.83.83 0 0 1-.072-.375v-1.029c0-.139.026-.262.077-.365zm5.296-.987h-.812l-.874 1.548h-.422v-1.548h-.704v3.743h.704v-1.517h.416l.967 1.517h.885l-1.25-1.861 1.09-1.882zm2.988 1.974a.98.98 0 0 0-.422-.149 1.01 1.01 0 0 0 .396-.149.726.726 0 0 0 .252-.277.853.853 0 0 0 .087-.386c0-.21-.046-.396-.133-.545a.894.894 0 0 0-.391-.35 1.43 1.43 0 0 0-.622-.118h-1.527v3.743h1.568c.242 0 .447-.04.622-.118a.85.85 0 0 0 .396-.35 1.04 1.04 0 0 0 .134-.55v-.01a.993.993 0 0 0-.093-.437.835.835 0 0 0-.267-.303zm-.859-1.295c.144 0 .257.036.34.103.082.067.118.159.118.282a.423.423 0 0 1-.119.314c-.077.077-.195.113-.339.113h-.797v-.802h.797v-.01zm.504 1.938a.422.422 0 0 1-.134.33.556.556 0 0 1-.375.118h-.797v-.9h.797c.108 0 .2.015.273.051a.424.424 0 0 1 .174.155.455.455 0 0 1 .062.241v.005zm3.512 1.127H21l-1.435-3.744h-.447l-1.435 3.743h.761l.211-.601h1.373l.211.601zm-1.347-1.28l.447-1.276.448 1.275h-.895z"/></g><defs><clipPath id="a"><path fill="#fff" d="M0 .181h21v29.73H0z"/></clipPath></defs></svg>
